icons/add-user.svg

<svg width="25" height="24" viewBox="0 0 25 24" fill="none" xmlns="http://www.w3.org/2000/svg">
<path fill-rule="evenodd" clip-rule="evenodd" d="M9.10408 3C6.59244 3 4.60409 5.08623 4.60409 7.6V9.4C4.60409 10.6722 5.11338 11.8349 5.94204 12.6731C5.36305 12.9466 4.8325 13.3019 4.36118 13.7362C3.12556 14.8748 2.36953 16.489 2.16254 18.3992C2.03102 19.6129 3.03305 20.5058 4.10408 20.5058H14.1041C15.1751 20.5058 16.1772 19.6129 16.0456 18.3992C15.8386 16.489 15.0826 14.8748 13.847 13.7362C13.3757 13.3019 12.8451 12.9466 12.2661 12.6731C13.0948 11.8349 13.6041 10.6722 13.6041 9.4V7.6C13.6041 5.08623 11.6157 3 9.10408 3ZM9.10408 12C10.4584 12 11.6041 10.8627 11.6041 9.4V7.6C11.6041 6.13732 10.4584 5 9.10408 5C7.74974 5 6.60408 6.13732 6.60408 7.6V9.4C6.60408 10.8627 7.74974 12 9.10408 12ZM9.10408 14C7.68197 14 6.53956 14.4486 5.71645 15.207C4.91128 15.949 4.34237 17.0517 4.16348 18.5058H14.0447C13.8658 17.0517 13.2969 15.949 12.4917 15.207C11.6686 14.4486 10.5262 14 9.10408 14Z" fill="#9AA1B4"/>
<path d="M17.6041 12.5C17.6041 13.0523 18.0518 13.5 18.6041 13.5C19.1564 13.5 19.6041 13.0523 19.6041 12.5V11H21.1041C21.6564 11 22.1041 10.5523 22.1041 10C22.1041 9.44772 21.6564 9 21.1041 9H19.6041V7.5C19.6041 6.94772 19.1564 6.5 18.6041 6.5C18.0518 6.5 17.6041 6.94772 17.6041 7.5V9H16.1041C15.5518 9 15.1041 9.44771 15.1041 10C15.1041 10.5523 15.5518 11 16.1041 11H17.6041V12.5Z" fill="#9AA1B4"/>
</svg>

<?xml version="1.0" encoding="utf-8"?>
<!-- Generator: Adobe Illustrator 22.1.0, SVG Export Plug-In . SVG Version: 6.00 Build 0)  -->
<svg version="1.1" id="Layer_1" xmlns="http://www.w3.org/2000/svg" xmlns:xlink="http://www.w3.org/1999/xlink" x="0px" y="0px"
	 viewBox="0 0 25 24" style="enable-background:new 0 0 25 24;" xml:space="preserve">
<style type="text/css">
	.st0{fill:#9AA1B4;}
</style>
<path class="st0" d="M13.8,13.7c-0.5-0.4-1-0.8-1.6-1.1c0.8-0.8,1.3-2,1.3-3.3V7.6c0-2.5-2-4.6-4.5-4.6C6.6,3,4.6,5.1,4.6,7.6v1.8
	c0,1.3,0.5,2.4,1.3,3.3c-0.6,0.3-1.1,0.6-1.6,1.1c-1.2,1.1-2,2.8-2.2,4.7C2,19.6,3,20.5,4.1,20.5h10c1.1,0,2.1-0.9,1.9-2.1
	C15.8,16.5,15.1,14.9,13.8,13.7z M6.6,7.6C6.6,6.1,7.7,5,9.1,5s2.5,1.1,2.5,2.6v1.8c0,1.5-1.1,2.6-2.5,2.6s-2.5-1.1-2.5-2.6V7.6z
	 M4.2,18.5c0.2-1.5,0.7-2.6,1.6-3.3c0.8-0.8,2-1.2,3.4-1.2s2.6,0.4,3.4,1.2c0.8,0.7,1.4,1.8,1.6,3.3H4.2z"/>
<path class="st0" d="M17.6,12.5c0,0.6,0.4,1,1,1c0.6,0,1-0.4,1-1V11h1.5c0.6,0,1-0.4,1-1c0-0.6-0.4-1-1-1h-1.5V7.5c0-0.6-0.4-1-1-1
	c-0.6,0-1,0.4-1,1V9h-1.5c-0.6,0-1,0.4-1,1c0,0.6,0.4,1,1,1h1.5V12.5z"/>
</svg>
